assets/icons/regular/credit-card.svg

<svg xmlns="http://www.w3.org/2000/svg" viewBox="0 0 576 512"><!--! Font Awesome Free 6.7.2 by @fontawesome - https://fontawesome.com License - https://fontawesome.com/license/free (Icons: CC BY 4.0, Fonts: SIL OFL 1.1, Code: MIT License) Copyright 2024 Fonticons, Inc. --><path d="M512 80c8.8 0 16 7.2 16 16l0 32L48 128l0-32c0-8.8 7.2-16 16-16l448 0zm16 144l0 192c0 8.8-7.2 16-16 16L64 432c-8.8 0-16-7.2-16-16l0-192 480 0zM64 32C28.7 32 0 60.7 0 96L0 416c0 35.3 28.7 64 64 64l448 0c35.3 0 64-28.7 64-64l0-320c0-35.3-28.7-64-64-64L64 32zm56 304c-13.3 0-24 10.7-24 24s10.7 24 24 24l48 0c13.3 0 24-10.7 24-24s-10.7-24-24-24l-48 0zm128 0c-13.3 0-24 10.7-24 24s10.7 24 24 24l112 0c13.3 0 24-10.7 24-24s-10.7-24-24-24l-112 0z"/></svg>

<svg xmlns="http://www.w3.org/2000/svg" viewBox="0 0 576 512"><!--! Font Awesome Pro 6.5.1 by @fontawesome - https://fontawesome.com License - https://fontawesome.com/license (Commercial License) Copyright 2023 Fonticons, Inc. --><path d="M512 80c8.8 0 16 7.2 16 16v32H48V96c0-8.8 7.2-16 16-16H512zm16 144V416c0 8.8-7.2 16-16 16H64c-8.8 0-16-7.2-16-16V224H528zM64 32C28.7 32 0 60.7 0 96V416c0 35.3 28.7 64 64 64H512c35.3 0 64-28.7 64-64V96c0-35.3-28.7-64-64-64H64zm56 304c-13.3 0-24 10.7-24 24s10.7 24 24 24h48c13.3 0 24-10.7 24-24s-10.7-24-24-24H120zm128 0c-13.3 0-24 10.7-24 24s10.7 24 24 24H360c13.3 0 24-10.7 24-24s-10.7-24-24-24H248z"/></svg>
